P3
# Synthetic Basir AI mock frame; no real people or cafe footage.
32 18
255
27 20 15 27 20 15 27 20 15 27 20 15 27 20 15 27 20 15 27 20 15 27 20 15 27 20 15 27 20 15 27 20 15 27 20 15 27 20 15 27 20 15 27 20 15 27 20 15 27 20 15 27 20 15 27 20 15 27 20 15 27 20 15 27 20 15 27 20 15 27 20 15 27 20 15 27 20 15 27 20 15 27 20 15 27 20 15 27 20 15 27 20 15 27 20 15
27 20 15 27 20 15 27 20 15 27 20 15 27 20 15 27 20 15 27 20 15 27 20 15 27 20 15 27 20 15 27 20 15 27 20 15 27 20 15 27 20 15 27 20 15 27 20 15 27 20 15 27 20 15 27 20 15 27 20 15 27 20 15 27 20 15 27 20 15 27 20 15 27 20 15 27 20 15 27 20 15 27 20 15 27 20 15 27 20 15 27 20 15 27 20 15
27 20 15 237 227 208 237 227 208 237 227 208 237 227 208 237 227 208 237 227 208 237 227 208 237 227 208 237 227 208 237 227 208 237 227 208 237 227 208 237 227 208 237 227 208 27 20 15 27 20 15 237 227 208 237 227 208 237 227 208 237 227 208 237 227 208 237 227 208 237 227 208 237 227 208 237 227 208 237 227 208 237 227 208 237 227 208 237 227 208 237 227 208 27 20 15
27 20 15 237 227 208 120 90 58 120 90 58 120 90 58 120 90 58 120 90 58 120 90 58 120 90 58 120 90 58 120 90 58 120 90 58 120 90 58 120 90 58 237 227 208 27 20 15 27 20 15 237 227 208 120 90 58 120 90 58 120 90 58 120 90 58 120 90 58 120 90 58 120 90 58 120 90 58 120 90 58 120 90 58 120 90 58 120 90 58 237 227 208 27 20 15
27 20 15 237 227 208 120 90 58 120 90 58 120 90 58 120 90 58 79 190 176 79 190 176 120 90 58 120 90 58 120 90 58 120 90 58 120 90 58 120 90 58 237 227 208 27 20 15 27 20 15 237 227 208 120 90 58 120 90 58 120 90 58 120 90 58 120 90 58 120 90 58 120 90 58 120 90 58 120 90 58 120 90 58 120 90 58 120 90 58 237 227 208 27 20 15
27 20 15 237 227 208 120 90 58 120 90 58 120 90 58 120 90 58 79 190 176 79 190 176 120 90 58 120 90 58 120 90 58 120 90 58 120 90 58 120 90 58 237 227 208 27 20 15 27 20 15 237 227 208 120 90 58 120 90 58 120 90 58 120 90 58 120 90 58 120 90 58 120 90 58 120 90 58 120 90 58 120 90 58 120 90 58 120 90 58 237 227 208 27 20 15
27 20 15 237 227 208 120 90 58 120 90 58 120 90 58 120 90 58 120 90 58 120 90 58 120 90 58 120 90 58 120 90 58 120 90 58 120 90 58 120 90 58 237 227 208 27 20 15 27 20 15 237 227 208 120 90 58 120 90 58 120 90 58 120 90 58 120 90 58 120 90 58 120 90 58 120 90 58 120 90 58 120 90 58 120 90 58 120 90 58 237 227 208 27 20 15
27 20 15 237 227 208 120 90 58 120 90 58 120 90 58 120 90 58 120 90 58 120 90 58 120 90 58 120 90 58 120 90 58 120 90 58 120 90 58 120 90 58 237 227 208 27 20 15 27 20 15 237 227 208 120 90 58 120 90 58 120 90 58 120 90 58 120 90 58 120 90 58 120 90 58 120 90 58 120 90 58 120 90 58 120 90 58 120 90 58 237 227 208 27 20 15
27 20 15 237 227 208 237 227 208 237 227 208 237 227 208 237 227 208 237 227 208 237 227 208 237 227 208 237 227 208 237 227 208 237 227 208 237 227 208 237 227 208 237 227 208 27 20 15 27 20 15 237 227 208 237 227 208 237 227 208 237 227 208 237 227 208 237 227 208 237 227 208 237 227 208 237 227 208 237 227 208 237 227 208 237 227 208 237 227 208 237 227 208 27 20 15
27 20 15 27 20 15 27 20 15 27 20 15 27 20 15 27 20 15 27 20 15 27 20 15 27 20 15 27 20 15 27 20 15 27 20 15 27 20 15 27 20 15 27 20 15 27 20 15 27 20 15 27 20 15 27 20 15 27 20 15 27 20 15 27 20 15 27 20 15 27 20 15 27 20 15 27 20 15 27 20 15 27 20 15 27 20 15 27 20 15 27 20 15 27 20 15
27 20 15 237 227 208 237 227 208 237 227 208 237 227 208 237 227 208 237 227 208 237 227 208 237 227 208 237 227 208 237 227 208 237 227 208 237 227 208 237 227 208 237 227 208 27 20 15 27 20 15 237 227 208 237 227 208 237 227 208 237 227 208 237 227 208 237 227 208 237 227 208 237 227 208 237 227 208 237 227 208 237 227 208 237 227 208 237 227 208 237 227 208 27 20 15
27 20 15 237 227 208 120 90 58 120 90 58 120 90 58 120 90 58 120 90 58 120 90 58 120 90 58 120 90 58 120 90 58 120 90 58 120 90 58 120 90 58 237 227 208 27 20 15 27 20 15 237 227 208 120 90 58 120 90 58 120 90 58 120 90 58 120 90 58 120 90 58 120 90 58 120 90 58 120 90 58 120 90 58 120 90 58 120 90 58 237 227 208 27 20 15
27 20 15 237 227 208 120 90 58 120 90 58 227 169 63 227 169 63 120 90 58 120 90 58 120 90 58 227 169 63 227 169 63 120 90 58 120 90 58 120 90 58 237 227 208 27 20 15 27 20 15 237 227 208 120 90 58 210 98 46 210 98 46 120 90 58 210 98 46 210 98 46 120 90 58 210 98 46 210 98 46 120 90 58 210 98 46 210 98 46 237 227 208 27 20 15
27 20 15 237 227 208 120 90 58 120 90 58 227 169 63 227 169 63 120 90 58 120 90 58 120 90 58 227 169 63 227 169 63 120 90 58 120 90 58 120 90 58 237 227 208 27 20 15 27 20 15 237 227 208 120 90 58 210 98 46 210 98 46 120 90 58 210 98 46 210 98 46 120 90 58 210 98 46 210 98 46 120 90 58 210 98 46 210 98 46 237 227 208 27 20 15
27 20 15 237 227 208 120 90 58 120 90 58 120 90 58 120 90 58 120 90 58 120 90 58 120 90 58 120 90 58 120 90 58 120 90 58 120 90 58 120 90 58 237 227 208 27 20 15 27 20 15 237 227 208 120 90 58 120 90 58 120 90 58 120 90 58 120 90 58 120 90 58 120 90 58 120 90 58 120 90 58 120 90 58 120 90 58 120 90 58 237 227 208 27 20 15
27 20 15 237 227 208 120 90 58 120 90 58 120 90 58 120 90 58 120 90 58 120 90 58 120 90 58 120 90 58 120 90 58 120 90 58 120 90 58 120 90 58 237 227 208 27 20 15 27 20 15 237 227 208 120 90 58 120 90 58 120 90 58 120 90 58 120 90 58 120 90 58 120 90 58 120 90 58 120 90 58 120 90 58 120 90 58 120 90 58 237 227 208 27 20 15
27 20 15 237 227 208 237 227 208 237 227 208 237 227 208 237 227 208 237 227 208 237 227 208 237 227 208 237 227 208 237 227 208 237 227 208 237 227 208 237 227 208 237 227 208 27 20 15 27 20 15 237 227 208 237 227 208 237 227 208 237 227 208 237 227 208 237 227 208 237 227 208 237 227 208 237 227 208 237 227 208 237 227 208 237 227 208 237 227 208 237 227 208 27 20 15
27 20 15 27 20 15 27 20 15 27 20 15 27 20 15 27 20 15 27 20 15 27 20 15 27 20 15 27 20 15 27 20 15 27 20 15 27 20 15 27 20 15 27 20 15 27 20 15 27 20 15 27 20 15 27 20 15 27 20 15 27 20 15 27 20 15 27 20 15 27 20 15 27 20 15 27 20 15 27 20 15 27 20 15 27 20 15 27 20 15 27 20 15 27 20 15
